src/svg/cart.svg

<svg width="25" height="25" viewBox="0 0 25 25" fill="none" xmlns="http://www.w3.org/2000/svg">
<path fill-rule="evenodd" clip-rule="evenodd" d="M12.4998 2.47498H12.4539C10.7839 2.47497 9.46834 2.47496 8.43095 2.60643C7.36658 2.74132 6.50916 3.02324 5.80459 3.64952C5.10094 4.27499 4.72055 5.08825 4.46241 6.12231C4.21108 7.12913 4.05829 8.42342 3.8645 10.0651L3.85909 10.1108L3.53444 12.8608L3.52827 12.9131C3.28743 14.9531 3.09852 16.5531 3.12564 17.8085C3.1534 19.0932 3.40733 20.1295 4.14933 20.9643C4.89133 21.799 5.89074 22.1727 7.16328 22.3509C8.40683 22.525 10.018 22.525 12.0722 22.525H12.1248H12.8748H12.9274C14.9816 22.525 16.5927 22.525 17.8363 22.3509C19.1088 22.1727 20.1082 21.799 20.8502 20.9643C21.5922 20.1295 21.8462 19.0932 21.8739 17.8085C21.901 16.5531 21.7121 14.953 21.4713 12.913L21.4651 12.8608L21.1405 10.1108L21.1351 10.0651L21.1351 10.0651C20.9413 8.42345 20.7885 7.12913 20.5372 6.12231C20.279 5.08825 19.8986 4.27499 19.195 3.64952C18.4904 3.02324 17.633 2.74132 16.5686 2.60643C15.5312 2.47496 14.2157 2.47497 12.5457 2.47498H12.5457H12.4998ZM6.66826 4.62116C7.10035 4.23708 7.66571 4.01381 8.5944 3.89611C9.54059 3.7762 10.7738 3.77498 12.4998 3.77498C14.2258 3.77498 15.459 3.7762 16.4052 3.89611C17.3339 4.01381 17.8992 4.23708 18.3313 4.62116C18.7643 5.00605 19.0514 5.5382 19.2759 6.43717C19.5047 7.35406 19.649 8.56573 19.8494 10.2633L20.1741 13.0133C20.4224 15.1169 20.5992 16.6266 20.5742 17.7805C20.5497 18.9157 20.33 19.5928 19.8786 20.1006C19.4272 20.6084 18.7806 20.906 17.656 21.0634C16.5131 21.2235 14.993 21.225 12.8748 21.225H12.1248C10.0066 21.225 8.48649 21.2235 7.34355 21.0634C6.21899 20.906 5.57234 20.6084 5.12096 20.1006C4.66959 19.5928 4.44987 18.9157 4.42534 17.7805C4.40041 16.6266 4.57713 15.1169 4.82547 13.0133L5.15013 10.2633C5.35053 8.56573 5.49482 7.35406 5.72371 6.43717C5.94812 5.5382 6.23526 5.00605 6.66826 4.62116ZM10.0249 9.37497C10.0249 10.7419 11.133 11.85 12.4999 11.85C13.8668 11.85 14.9749 10.7419 14.9749 9.37498V7.29164C14.9749 6.93266 15.2659 6.64164 15.6249 6.64164C15.9839 6.64164 16.2749 6.93266 16.2749 7.29164V9.37498C16.2749 11.4599 14.5848 13.15 12.4999 13.15C10.415 13.15 8.7249 11.4598 8.7249 9.37497V7.29164C8.7249 6.93266 9.01591 6.64164 9.3749 6.64164C9.73388 6.64164 10.0249 6.93266 10.0249 7.29164V9.37497Z" fill="#101F33"/>
</svg>

<svg xmlns="http://www.w3.org/2000/svg" width="25" height="25" fill="none"><path fill-rule="evenodd" d="M12.5 2.475h-.046c-1.67 0-2.986 0-4.023.131-1.064.135-1.922.417-2.626 1.043S4.721 5.088 4.462 6.122c-.251 1.007-.404 2.301-.598 3.943l-.005.046-.325 2.75-.006.052-.403 4.895c.028 1.285.282 2.321 1.024 3.156s1.741 1.208 3.014 1.387c1.244.174 2.855.174 4.909.174h.053.75.053l4.909-.174c1.272-.178 2.272-.552 3.014-1.387s.996-1.871 1.024-3.156c.027-1.255-.162-2.855-.403-4.895l-.006-.052-.325-2.75-.005-.046h0l-.598-3.943c-.258-1.034-.639-1.847-1.342-2.473s-1.562-.908-2.626-1.043c-1.037-.131-2.353-.131-4.023-.131h0-.046zM6.668 4.621c.432-.384.997-.607 1.926-.725.946-.12 2.179-.121 3.905-.121l3.905.121c.929.118 1.494.341 1.926.725s.72.917.945 1.816c.229.917.373 2.129.573 3.826l.325 2.75.4 4.767c-.024 1.135-.244 1.812-.696 2.32s-1.098.805-2.223.963c-1.143.16-2.663.162-4.781.162h-.75c-2.118 0-3.638-.002-4.781-.162-1.125-.157-1.771-.455-2.223-.963s-.671-1.185-.696-2.32c-.025-1.154.152-2.664.4-4.767l.325-2.75.574-3.826c.224-.899.512-1.431.945-1.816zm3.357 4.754c0 1.367 1.108 2.475 2.475 2.475s2.475-1.108 2.475-2.475V7.292a.65.65 0 0 1 1.3 0v2.083c0 2.085-1.69 3.775-3.775 3.775s-3.775-1.69-3.775-3.775V7.292a.65.65 0 1 1 1.3 0v2.083z" fill="#101f33"/></svg>
